src/assets/sensei/emiliano.svg

<svg width="141" height="133" viewBox="0 0 141 133" fill="none" xmlns="http://www.w3.org/2000/svg">
<g clip-path="url(#clip0_94_54)">
<path d="M135.81 32.13C135.81 32.13 135.51 32.13 134.95 32.14C134.37 32.14 133.59 32.23 132.61 32.37C131.66 32.54 130.55 32.79 129.39 33.18C128.22 33.55 127 34.06 125.73 34.62C123.19 35.75 120.52 37.23 117.8 38.81C115.06 40.37 112.25 42.02 109.48 43.56C108.09 44.33 106.72 45.08 105.36 45.74C104 46.42 102.67 47.02 101.39 47.58C100.11 48.11 98.89 48.62 97.72 48.98C96.56 49.36 95.47 49.68 94.48 49.9C93.98 50.03 93.51 50.13 93.07 50.2C92.63 50.29 92.2 50.36 91.82 50.4C91.44 50.44 91.04 50.51 90.76 50.52C90.49 50.53 90.24 50.54 90.01 50.55C88.68 50.61 87.92 50.65 87.92 50.65H87.85C87.15 50.69 86.44 50.81 85.73 51.02C85.12 51.2 84.54 51.45 84 51.74L78.2 50.26L67.95 47.64L58.07 45.12L48.67 57.29L33.86 93C31.5 94.85 29.14 96.71 26.79 98.58L15.04 107.93C13.1 109.52 11.18 111.13 9.29001 112.79C7.40001 114.45 5.53001 116.15 3.68001 117.87L2.38001 119.07C2.27001 119.17 2.18001 119.3 2.11001 119.45C1.53001 120.81 1.05001 122.23 0.67001 123.72C0.48001 124.46 0.34001 125.24 0.21001 126.02C0.16001 126.42 0.10001 126.81 0.0700098 127.23C0.0300098 127.64 0.0100098 128.05 0.0100098 128.49C0.0100098 128.84 0.0900097 129.21 0.24001 129.56C0.85001 130.95 2.48001 131.59 3.87001 130.97C4.27001 130.79 4.64001 130.6 4.99001 130.39C5.35001 130.19 5.68001 129.97 6.03001 129.76C6.68001 129.31 7.33001 128.87 7.93001 128.38C9.13001 127.42 10.22 126.39 11.21 125.3L9.65001 126.88C11.95 125.84 14.25 124.79 16.51 123.69C18.77 122.59 21.01 121.45 23.23 120.28L36.42 113.1C40.81 110.7 45.21 108.3 49.55 105.82L56.06 102.1C56.48 101.85 56.9 101.6 57.32 101.36C58.21 101.67 59.15 101.88 60.13 101.95C63.05 102.15 65.98 102.31 68.9 102.49C71.82 102.67 74.75 102.82 77.68 102.96L86.27 103.38C86.17 105.54 86.07 107.71 85.98 109.88C85.85 112.69 85.77 115.51 85.79 118.34C85.81 119.76 85.83 121.18 85.88 122.6C85.95 124.03 85.95 125.44 86.11 126.88L86.34 129.04C86.55 131 88.16 132.57 90.19 132.67C91.99 132.76 93.81 132.76 95.65 132.67C96.11 132.65 96.57 132.6 97.03 132.57C97.49 132.54 97.95 132.5 98.42 132.44C99.35 132.34 100.29 132.2 101.24 131.98C101.83 131.85 102.37 131.51 102.75 130.98C103.55 129.85 103.28 128.28 102.14 127.48C101.34 126.92 100.53 126.43 99.71 125.97C99.3 125.73 98.89 125.51 98.48 125.31C98.17 125.16 97.86 125 97.55 124.84C97.61 124.67 97.66 124.51 97.72 124.34C98.18 122.99 98.61 121.64 99.03 120.29C99.87 117.58 100.6 114.86 101.29 112.13C102.7 106.68 104.05 101.21 105.4 95.75C105.47 95.46 105.53 95.16 105.57 94.86C106.22 90.16 102.93 85.82 98.23 85.18L96.93 85C95.15 84.76 93.38 84.5 91.6 84.26L96.28 67.98L95.62 66.75C95.87 66.66 96.11 66.56 96.38 66.46C96.95 66.25 97.54 65.99 98.15 65.74C98.77 65.49 99.41 65.2 100.05 64.89C101.36 64.28 102.71 63.56 104.09 62.77C105.47 61.97 106.88 61.12 108.29 60.21C111.09 58.37 113.87 56.27 116.54 54.22C119.21 52.16 121.75 50.08 124.09 48.24C126.45 46.42 128.61 44.85 130.43 43.73C131.33 43.17 132.16 42.74 132.85 42.43C133.55 42.1 134.11 41.91 134.56 41.77C134.98 41.66 135.32 41.58 135.5 41.57C135.7 41.54 135.81 41.52 135.81 41.52L136.64 41.38C138.88 41.01 140.57 39.05 140.53 36.72C140.49 34.15 138.38 32.1 135.81 32.14V32.13Z" fill="#27004B"/>
<path d="M44.28 80.05L44.98 84.95L91.18 84.25L91.88 80.75L44.28 80.05Z" fill="#FFAE00" stroke="#FFAE00" stroke-width="1.05" stroke-linecap="round" stroke-linejoin="round"/>
<path d="M78.9099 89.9101C78.9099 89.9101 79.2899 98.7901 75.1299 105.96L71.1599 102.75C71.1599 102.75 74.3699 89.3401 78.3399 85.1901L78.9099 89.9101Z" fill="#C38500" stroke="#C38500" stroke-width="1.13" stroke-linecap="round" stroke-linejoin="round"/>
<path d="M81.8198 79.7L78.8098 91.94L74.5898 90.77L77.5898 78.52L81.8198 79.7Z" fill="#C38500" stroke="#C38500" stroke-width="1.05" stroke-linecap="round" stroke-linejoin="round"/>
<path d="M80.1199 88.1801C80.1199 88.1801 85.0299 98.1901 85.2199 103.29L82.1999 107.63C82.1999 107.63 76.7199 96.3001 77.8599 89.8801L80.1299 88.1801H80.1199Z" fill="#C38500" stroke="#C38500" stroke-width="1.13" stroke-linecap="round" stroke-linejoin="round"/>
<path d="M58.5599 64.56C58.8099 67.13 58.9999 69.71 59.2199 72.28L59.7699 80.01C59.9499 82.59 60.0799 85.17 60.2399 87.75L60.6799 95.5L61.0999 103.25C61.2299 105.83 61.3799 108.42 61.4599 111.01C61.5499 113.6 61.5799 116.2 61.5899 118.8C61.5499 121.41 61.6599 123.99 61.2799 126.64L61.0299 128.35C60.8799 129.41 60.1099 130.23 59.1399 130.5C57.9199 130.84 56.6699 131.12 55.4099 131.39C54.7799 131.52 54.1399 131.63 53.4999 131.74C52.8599 131.84 52.2099 131.93 51.5499 131.99C50.4399 132.1 49.4599 131.29 49.3499 130.18C49.2899 129.55 49.5299 128.95 49.9599 128.54C50.4399 128.08 50.9299 127.64 51.4199 127.22C51.9199 126.81 52.4199 126.39 52.9299 126C53.9499 125.22 54.9699 124.45 56.0199 123.74L53.8899 127.6C52.8499 125.13 52.2999 122.6 51.6099 120.09C50.9599 117.57 50.3399 115.05 49.7699 112.52C49.1999 109.99 48.6899 107.46 48.1599 104.92L46.6099 97.31L45.0899 89.7C44.5899 87.16 44.0599 84.63 43.5899 82.09L42.1699 74.47C41.7299 71.92 41.2599 69.38 40.8599 66.83C40.0899 61.96 43.4199 57.39 48.2899 56.62C53.1599 55.85 57.7299 59.18 58.4999 64.05C58.5299 64.21 58.5499 64.4 58.5699 64.56H58.5599Z" fill="#27004B"/>
<path d="M38.54 47.29C39.76 63.78 57.52 75.9 73.12 74.75C88.72 73.6 104.5 58.99 103.28 42.51C102.06 26.02 86.58 13.73 68.7 15.05C50.82 16.37 37.32 30.81 38.53 47.29H38.54Z" fill="#FFDBC5"/>
<path d="M66.6101 0.10001C43.67 1.79001 28.64 22.22 28.06 43.56C27.44 66.55 40.5201 79.85 72.3301 77.5C104.14 75.15 115.49 60 111.12 37.42C107.56 19.04 89.5401 -1.59999 66.6101 0.10001ZM93.8 52.45L49.26 55.74C44.28 56.11 40.35 51.58 41.41 46.7L41.9001 44.43C44.73 31.41 55.78 21.8 69.07 20.82C82.3601 19.84 94.7001 27.72 99.41 40.18L100.23 42.36C101.99 47.03 98.7701 52.08 93.79 52.45H93.8Z" fill="#27004B"/>
<g style="mix-blend-mode:soft-light">
<path d="M100.81 41.4L99.9902 39.22C95.2802 26.76 82.9302 18.88 69.6502 19.86C56.3602 20.84 45.3102 30.45 42.4802 43.47L41.9902 45.74C41.7102 47.01 41.7802 48.25 42.1102 49.39C42.1402 49.18 42.1602 48.97 42.2102 48.75L42.7002 46.48C45.5302 33.46 56.5802 23.85 69.8702 22.87C83.1602 21.89 95.5002 29.77 100.21 42.23L101.03 44.41C101.11 44.62 101.16 44.82 101.22 45.03C101.38 43.85 101.26 42.61 100.81 41.4Z" fill="#453434"/>
</g>
<g style="mix-blend-mode:soft-light">
<path d="M72.6301 74.45C44.0801 76.56 30.6301 66.05 28.6201 47.25C29.4801 67.93 42.8101 79.68 72.8501 77.46C102.69 75.26 114.53 61.78 112.27 41.48C113.05 60.09 100.96 72.35 72.6201 74.44L72.6301 74.45Z" fill="#453434"/>
</g>
<path d="M60.3 46.76C60.14 44.55 58.21 42.89 56 43.05C53.79 43.21 52.13 45.14 52.29 47.35C52.45 49.56 54.38 51.22 56.59 51.05C58.8 50.89 60.46 48.96 60.3 46.76Z" fill="#293330"/>
<path d="M80.6801 45.2601C80.5201 43.0501 82.1801 41.1301 84.3901 40.9601C86.6001 40.8001 88.5201 42.4501 88.6901 44.6701C88.8501 46.8801 87.1901 48.8001 84.9801 48.9601C82.7701 49.1201 80.8501 47.4701 80.6801 45.2601Z" fill="#293330"/>
<path d="M89.3301 53.6C89.2001 51.82 86.7901 50.55 83.9501 50.76C81.1101 50.97 78.9101 52.58 79.0401 54.36C79.1701 56.14 81.5801 57.41 84.4301 57.2C87.2701 56.99 89.4701 55.38 89.3401 53.6H89.3301Z" fill="#FFB0B0"/>
<path d="M62.94 55.55C62.81 53.77 60.4 52.5 57.55 52.71C54.71 52.92 52.51 54.53 52.64 56.31C52.77 58.09 55.18 59.36 58.03 59.15C60.87 58.94 63.07 57.33 62.94 55.55Z" fill="#FFB0B0"/>
</g>
<defs>
<clipPath id="clip0_94_54">
<rect width="140.53" height="132.75" fill="white"/>
</clipPath>
</defs>
</svg>

<svg fill="none" height="133" viewBox="0 0 141 133" width="141" xmlns="http://www.w3.org/2000/svg" xmlns:xlink="http://www.w3.org/1999/xlink"><clipPath id="a"><path d="m0 0h140.53v132.75h-140.53z"/></clipPath><g clip-path="url(#a)"><path d="m135.81 32.13s-.3 0-.86.01c-.58 0-1.36.09-2.34.23-.95.17-2.06.42-3.22.81-1.17.37-2.39.88-3.66 1.44-2.54 1.13-5.21 2.61-7.93 4.19-2.74 1.56-5.55 3.21-8.32 4.75-1.39.77-2.76 1.52-4.12 2.18-1.36.68-2.69 1.28-3.97 1.84-1.28.53-2.5 1.04-3.67 1.4-1.16.38-2.25.7-3.24.92-.5.13-.97.23-1.41.3-.44.09-.87.16-1.25.2s-.78.11-1.06.12c-.27.01-.52.02-.75.03-1.33.06-2.09.1-2.09.1h-.07c-.7.04-1.41.16-2.12.37-.61.18-1.19.43-1.73.72l-5.8-1.48-10.25-2.62-9.88-2.52-9.4 12.17-14.81 35.71c-2.36 1.85-4.72 3.71-7.07 5.58l-11.75 9.35c-1.94 1.59-3.86 3.2-5.74999 4.86-1.89 1.66-3.76 3.36-5.61 5.08l-1.3 1.2c-.11.1-.2.23-.27.38-.58 1.36-1.06 2.78-1.44 4.27-.19.74-.33 1.52-.46 2.3-.05.4-.11.79-.1400002 1.21-.04.41-.06.82-.06 1.26 0 .35.0799999.72.2300002 1.07.61 1.39 2.24 2.03 3.63 1.41.4-.18.77-.37 1.12-.58.36-.2.69-.42 1.04-.63.65-.45 1.3-.89 1.9-1.38 1.2-.96 2.28999-1.99 3.27999-3.08l-1.55999 1.58c2.29999-1.04 4.59999-2.09 6.85999-3.19s4.5-2.24 6.72-3.41l13.19-7.18c4.39-2.4 8.79-4.8 13.13-7.28l6.51-3.72c.42-.25.84-.5 1.26-.74.89.31 1.83.52 2.81.59 2.92.2 5.85.36 8.77.54s5.85.33 8.78.47l8.59.42c-.1 2.16-.2 4.33-.29 6.5-.13 2.81-.21 5.63-.19 8.46.02 1.42.04 2.84.09 4.26.07 1.43.07 2.84.23 4.28l.23 2.16c.21 1.96 1.82 3.53 3.85 3.63 1.8.09 3.62.09 5.46 0 .46-.02.92-.07 1.38-.1s.92-.07 1.39-.13c.93-.1 1.87-.24 2.82-.46.59-.13 1.13-.47 1.51-1 .8-1.13.53-2.7-.61-3.5-.8-.56-1.61-1.05-2.43-1.51-.41-.24-.82-.46-1.23-.66-.31-.15-.62-.31-.93-.47.06-.17.11-.33.17-.5.46-1.35.89-2.7 1.31-4.05.84-2.71 1.57-5.43 2.26-8.16 1.41-5.45 2.76-10.92 4.11-16.38.07-.29.13-.59.17-.89.65-4.7-2.64-9.04-7.34-9.68l-1.3-.18c-1.78-.24-3.55-.5-5.33-.74l4.68-16.28-.66-1.23c.25-.09.49-.19.76-.29.57-.21 1.16-.47 1.77-.72.62-.25 1.26-.54 1.9-.85 1.31-.61 2.66-1.33 4.04-2.12 1.38-.8 2.79-1.65 4.2-2.56 2.8-1.84 5.58-3.94 8.25-5.99 2.67-2.06 5.21-4.14 7.55-5.98 2.36-1.82 4.52-3.39 6.34-4.51.9-.56 1.73-.99 2.42-1.3.7-.33 1.26-.52 1.71-.66.42-.11.76-.19.94-.2.2-.03.31-.05.31-.05l.83-.14c2.24-.37 3.93-2.33 3.89-4.66-.04-2.57-2.15-4.62-4.72-4.58z" fill="#27004b"/><g stroke-linecap="round" stroke-linejoin="round"><path d="m44.28 80.05.7 4.9 46.2-.7.7-3.5z" fill="#ffae00" stroke="#ffae00" stroke-width="1.05"/><path d="m78.9099 89.9101s.38 8.88-3.78 16.0499l-3.97-3.21s3.21-13.4099 7.18-17.5599z" fill="#c38500" stroke="#c38500" stroke-width="1.13"/><path d="m81.8198 79.7-3.01 12.24-4.22-1.17 3-12.25z" fill="#c38500" stroke="#c38500" stroke-width="1.05"/><path d="m80.1199 88.1801s4.91 10.01 5.1 15.1099l-3.02 4.34s-5.48-11.3299-4.34-17.7499l2.27-1.7z" fill="#c38500" stroke="#c38500" stroke-width="1.13"/></g><path d="m58.5599 64.56c.25 2.57.44 5.15.66 7.72l.55 7.73c.18 2.58.31 5.16.47 7.74l.44 7.75.42 7.75c.13 2.58.28 5.17.36 7.76.09 2.59.12 5.19.13 7.79-.04 2.61.07 5.19-.31 7.84l-.25 1.71c-.15 1.06-.92 1.88-1.89 2.15-1.22.34-2.47.62-3.73.89-.63.13-1.27.24-1.91.35-.64.1-1.29.19-1.95.25-1.11.11-2.09-.7-2.2-1.81-.06-.63.18-1.23.61-1.64.48-.46.97-.9 1.46-1.32.5-.41 1-.83 1.51-1.22 1.02-.78 2.04-1.55 3.09-2.26l-2.13 3.86c-1.04-2.47-1.59-5-2.28-7.51-.65-2.52-1.27-5.04-1.84-7.57s-1.08-5.06-1.61-7.6l-1.55-7.61-1.52-7.61c-.5-2.54-1.03-5.07-1.5-7.61l-1.42-7.62c-.44-2.55-.91-5.09-1.31-7.64-.77-4.87 2.56-9.44 7.43-10.21s9.44 2.56 10.21 7.43c.03.16.05.35.07.51z" fill="#27004b"/><path d="m38.54 47.29c1.22 16.49 18.98 28.61 34.58 27.46s31.38-15.76 30.16-32.24c-1.22-16.49-16.7-28.78-34.58-27.46s-31.38 15.76-30.17 32.24z" fill="#ffdbc5"/><path d="m66.6101.10001c-22.9401 1.69-37.9701 22.11999-38.5501 43.45999-.62 22.99 12.4601 36.29 44.2701 33.94 31.8099-2.35 43.1599-17.5 38.7899-40.08-3.56-18.38-21.5799-39.01999-44.5099-37.31999zm27.1899 52.34999-44.54 3.29c-4.98.37-8.91-4.16-7.85-9.04l.4901-2.27c2.8299-13.02 13.8799-22.63 27.1699-23.61 13.2901-.98 25.6301 6.9 30.34 19.36l.82 2.18c1.76 4.67-1.4599 9.72-6.44 10.09z" fill="#27004b"/><path d="m100.81 41.4-.8198-2.18c-4.71-12.46-17.06-20.34-30.34-19.36-13.29.98-24.34 10.59-27.17 23.61l-.49 2.27c-.28 1.27-.21 2.51.12 3.65.03-.21.05-.42.1-.64l.49-2.27c2.83-13.02 13.88-22.63 27.17-23.61s25.63 6.9 30.3398 19.36l.82 2.18c.08.21.13.41.19.62.16-1.18.04-2.42-.41-3.63z" fill="#453434"/><path d="m72.6301 74.45c-28.55 2.11-42-8.4-44.01-27.2.86 20.68 14.19 32.43 44.23 30.21 29.8399-2.2 41.6799-15.68 39.4199-35.98.78 18.61-11.31 30.87-39.6499 32.96z" fill="#453434"/><path d="m60.3 46.76c-.16-2.21-2.09-3.87-4.3-3.71s-3.87 2.09-3.71 4.3 2.09 3.87 4.3 3.7c2.21-.16 3.87-2.09 3.71-4.29z" fill="#293330"/><path d="m80.6801 45.2601c-.16-2.21 1.5-4.13 3.71-4.3 2.21-.16 4.13 1.49 4.3 3.71.16 2.21-1.5 4.13-3.71 4.29s-4.13-1.49-4.3-3.7z" fill="#293330"/><path d="m89.3301 53.6c-.13-1.78-2.54-3.05-5.38-2.84s-5.04 1.82-4.91 3.6 2.54 3.05 5.39 2.84c2.84-.21 5.04-1.82 4.91-3.6z" fill="#ffb0b0"/><path d="m62.94 55.55c-.13-1.78-2.54-3.05-5.39-2.84-2.84.21-5.04 1.82-4.91 3.6s2.54 3.05 5.39 2.84c2.84-.21 5.04-1.82 4.91-3.6z" fill="#ffb0b0"/></g></svg>
